build/system/AddressBookSolid.svg

<svg xmlns="http://www.w3.org/2000/svg" fill="none" viewBox="0 0 24 24" focusable="false"><path d="M0 0H24V24H0z"/><path fill="#74767B" fill-rule="evenodd" d="M8.0001 3C6.34324 3 5.0001 4.34315 5.0001 6L5.0001 6.35012L3.64844 6.34338C3.28444 6.34338 2.99805 6.62953 2.99805 6.99353C2.99805 7.35753 3.28444 7.64343 3.64844 7.64343L5.0001 7.65012L5.0001 11.3501L3.64844 11.3434C3.28444 11.3434 2.99805 11.6295 2.99805 11.9935C2.99805 12.3575 3.28444 12.6434 3.64844 12.6434L5.0001 12.6501L5.0001 16.3501L3.64844 16.3434C3.28444 16.3434 2.99805 16.6295 2.99805 16.9935C2.99805 17.3575 3.28444 17.6434 3.64844 17.6434L5.0001 17.6501L5.0001 18C5.0001 19.6569 6.34324 21 8.0001 21L18.0001 21C19.657 21 21.0001 19.6569 21.0001 18L21.0001 6C21.0001 4.34315 19.657 3 18.0001 3L8.0001 3ZM10.6116 9.2754C10.4593 7.862 11.5721 6.63126 12.9936 6.64093C14.4053 6.65052 15.4983 7.87995 15.3425 9.28305L15.2057 10.5156C15.0787 11.6597 14.1064 12.5222 12.9553 12.5119C11.8168 12.5016 10.8664 11.6404 10.7444 10.5084L10.6116 9.2754ZM9.82404 14.8957C10.5163 14.0203 11.5711 13.5096 12.6872 13.5096L13.324 13.5096C14.4697 13.5096 15.5489 14.0476 16.2386 14.9624L16.4298 15.216C17.1004 16.1056 16.4658 17.3787 15.3518 17.3787L10.6493 17.3787C9.52084 17.3787 8.89041 16.0765 9.59029 15.1914L9.82404 14.8957Z"/></svg>

<svg xmlns="http://www.w3.org/2000/svg" fill="none" viewBox="0 0 24 24" focusable="false"><path fill="#74767B" fill-rule="evenodd" d="M8 3C6.34 3 5 4.34 5 6v.35l-1.36-.01c-.36 0-.65.28-.65.65 0 .36.29.65.65.65L5 7.65v3.7l-1.36-.01c-.36 0-.65.28-.65.65 0 .36.29.65.65.65l1.36.01v3.7l-1.36-.01c-.36 0-.65.28-.65.65 0 .36.29.65.65.65l1.36.01V18c0 1.65 1.34 3 3 3h10c1.65 0 3-1.35 3-3V6c0-1.66-1.35-3-3-3zm2.61 6.27c-.16-1.41.96-2.64 2.38-2.63a2.38 2.38 0 0 1 2.35 2.64l-.14 1.23a2.253 2.253 0 0 1-2.25 2 2.24 2.24 0 0 1-2.21-2.01zm-.79 5.62a3.67 3.67 0 0 1 2.86-1.39h.64c1.14 0 2.22.54 2.91 1.46l.19.25c.68.89.04 2.16-1.07 2.16h-4.71c-1.12 0-1.75-1.3-1.05-2.18z"/></svg>
